X:19
T:James "Lad" O'Beirne's Reel
R:reel
C:Lad O'Beirne
D:Snug in the Blanket,P.O'Brien,J.Gans,D.Sproule
S:Duet fiddle recording of Martin Wynne & Brian Conway
Z:Paul Stewart Cranford (P.S.C.), <http://www.cranfordpub.com>
L:1/8
Q:333
M:C|
K:Gdor
dc|:BG ~G2 DGBG|AF ~F2 AdcA|G3 A BABc|dgg^f gbag|
fefg fdcB|AF~F2 CFAc|dggf dfdc|[1BGAF GBdc:|[2BGAF G2||
|:Bd|g2 gf gbag|fefd cFAc|d2 de fefd|cFAF CFAF|
DGGF GABc|AFcF dFAc|dggf dfdc|BGAF G2:|
